X: 4224
T: DOUBLE JIG
R: Jig
%R: jig
B: James Kerr "Merry Melodies" v.4 p.25 #224
Z: 2016 John Chambers <jc:trillian.mit.edu>
M: 6/8
L: 1/8
K: A
(3(E/F/G/) |\
AcB Afd | cea cea | AcB AGA | GBe GBe |\
AcB Afd | cea cea | fdB ABc | BAB A2 :|
|: c |\
eaf faf | faf ecA | dfd ecA | ecA B2A |\
faf fag | faf ecA | dfd ecA | EFG A2 :|

%%sep 1 1 500
%%sep 1 1 500

